static/fa/svgs/solid/code-fork.svg

<svg xmlns="http://www.w3.org/2000/svg" viewBox="0 0 448 512"><!--! Font Awesome Free 6.1.1 by @fontawesome - https://fontawesome.com License - https://fontawesome.com/license/free (Icons: CC BY 4.0, Fonts: SIL OFL 1.1, Code: MIT License) Copyright 2022 Fonticons, Inc.--><path d="M160 80c0 32.8-19.7 60.1-48 73.3V192c0 17.7 14.3 32 32 32h160c17.7 0 32-14.3 32-32v-38.7c-28.3-13.2-48-40.5-48-73.3 0-44.18 35.8-80 80-80s80 35.82 80 80c0 32.8-19.7 60.1-48 73.3V192c0 53-43 96-96 96h-48v70.7c28.3 12.3 48 40.5 48 73.3 0 44.2-35.8 80-80 80s-80-35.8-80-80c0-32.8 19.7-61 48-73.3V288h-48c-53.02 0-96-43-96-96v-38.7C19.75 140.1 0 112.8 0 80 0 35.82 35.82 0 80 0c44.2 0 80 35.82 80 80zm-80 24c13.25 0 24-10.75 24-24S93.25 56 80 56 56 66.75 56 80s10.75 24 24 24zm288 0c13.3 0 24-10.75 24-24s-10.7-24-24-24-24 10.75-24 24 10.7 24 24 24zM224 408c-13.3 0-24 10.7-24 24s10.7 24 24 24 24-10.7 24-24-10.7-24-24-24z"/></svg>

<svg xmlns="http://www.w3.org/2000/svg" viewBox="0 0 448 512"><!--! Font Awesome Free 6.1.1 by @fontawesome - https://fontawesome.com License - https://fontawesome.com/license/free (Icons: CC BY 4.0, Fonts: SIL OFL 1.1, Code: MIT License) Copyright 2022 Fonticons, Inc. --><path d="M160 80C160 112.8 140.3 140.1 112 153.3V192C112 209.7 126.3 224 144 224H304C321.7 224 336 209.7 336 192V153.3C307.7 140.1 288 112.8 288 80C288 35.82 323.8 0 368 0C412.2 0 448 35.82 448 80C448 112.8 428.3 140.1 400 153.3V192C400 245 357 288 304 288H256V358.7C284.3 371 304 399.2 304 432C304 476.2 268.2 512 224 512C179.8 512 144 476.2 144 432C144 399.2 163.7 371 192 358.7V288H144C90.98 288 48 245 48 192V153.3C19.75 140.1 0 112.8 0 80C0 35.82 35.82 0 80 0C124.2 0 160 35.82 160 80V80zM80 104C93.25 104 104 93.25 104 80C104 66.75 93.25 56 80 56C66.75 56 56 66.75 56 80C56 93.25 66.75 104 80 104zM368 104C381.3 104 392 93.25 392 80C392 66.75 381.3 56 368 56C354.7 56 344 66.75 344 80C344 93.25 354.7 104 368 104zM224 408C210.7 408 200 418.7 200 432C200 445.3 210.7 456 224 456C237.3 456 248 445.3 248 432C248 418.7 237.3 408 224 408z"/></svg>
